!!!OTL: Alles liebt und paart sich wieder.
!!!OTL-incipit: ALLES LIEBT UND PAART SICH WIEDER
!!!ARE: Europa, Mitteleuropa, Deutschland
!!!SCT: F0939
!!!TXL: @@DE
!!!YEM: Copyright 1995, estate of Helmut Schaffrath.
**kern	**text
*ICvox	*
*clefG2	*
*M4/4	*
*met(c)	*
*k[f#]	*
*G:	*
!LO:TX:a:t=Mäßig.	!
{8d	1._Al-
8d	-les
=1	=1
4.g	liebt
8g	und
4.g	paart
8a	ſich
=2	=2
8gL	wie-
8f#J	.
4f#	-der,
4r}	.
{8d	lie-
8f#	-bend
=3	=3
4.a\	ſteigt
8a\	der
(8a\L	Lenʒ
8ccJ)	.
(8b\L	her-
8aJ)	.
=4	=4
(8a\L	-nie-
8gJ)	.
4g\	-der,
4r}	.
{8b	und
8b	um-
=5	=5
4.b	-armt
8g	die
4g	jun-
(8aL	-ge
8bJ)	.
=6	=6
(4b/	Flur.
4a)	.
4r}	.
{8cc	Sü-
8a\	-ßes
=7	=7
8gL	ſeh-
8f#J	.
8eL	-nen-
8dJ	.
(4d	-des
8e)	.
8f#	Ver-
=8	=8
8aL	-lan-
8gJ	.
4g	-gen,
4r}	.
{8b	ei-
8a\	-nem
=9	=9
8gL	We-
8f#J	.
8eL	-ſen
8dJ	.
(4d	an-
8e)	.
8f#	-ʒu-
=10	=10
8aL	-han-
8gJ	.
4g	-gen,
4r}	.
{8b	lebt
8b	und
=11	=11
(8b\L	webt
8aJ)	.
(8cc\L	durch
8aJ)	.
(8aL	die
8gJ)	.
(8gL	Na-
8f#J)	.
=12	=12
2.dd}	-tur,
{8cc	lebt
8b	und
=13	=13
(8b\L	webt
8aJ)	.
(8cc\L	durch
8aJ)	.
(8aL	die
8gJ)	.
(8gL	Na-
8f#J)	.
=14	=14
2g	-tur.
4r}	.
==;	==;
!!!AGN: Liebes - Lied
!!!ONB: ESAC (Essen Associative Code) Database: FINK
!!!AMT: simple quadruple
!!!AIN: vox
!!!EED: Helmut Schaffrath
!!!EEV: 1.0
!!Text: W. G. Becker
!!!GTL: Minnelieder
!!!source: Musikalischer Hausschatz der Deutschen. Eine Sammlung von über 1000 Liedern und Gesängen mit Singstimmen und Klavierbegleitung. Leipzig, Litterarisches Verlags-Haus.
!!!page: 696
!!!URL-scan: https://www.digitale-sammlungen.de/en/view/bsb11144622?page=607
!!!ENC: Anna Maria Matuszewska
!!!EEV: 2024/08/08
*-	*-
